storage/app/icons/tabler/filled/file-code-2.svg

<!--
unicode: "1012d"
version: "3.30"
-->
<svg
  xmlns="http://www.w3.org/2000/svg"
  width="24"
  height="24"
  viewBox="0 0 24 24"
  fill="currentColor"
>
  <path d="M12 2l.117 .007a1 1 0 0 1 .876 .876l.007 .117v4l.005 .15a2 2 0 0 0 1.838 1.844l.157 .006h4l.117 .007a1 1 0 0 1 .876 .876l.007 .117v9a3 3 0 0 1 -2.824 2.995l-.176 .005h-10a3 3 0 0 1 -2.995 -2.824l-.005 -.176v-14a3 3 0 0 1 2.824 -2.995l.176 -.005zm-2 9h-1a1 1 0 0 0 -1 1v5a1 1 0 0 0 1 1h1a1 1 0 0 0 1 -1l-.007 -.117a1 1 0 0 0 -.876 -.876l-.117 -.007v-3a1 1 0 0 0 0 -2m5 0h-1a1 1 0 0 0 0 2v3a1 1 0 0 0 0 2h1a1 1 0 0 0 1 -1v-5a1 1 0 0 0 -1 -1m-.001 -8.001l4.001 4.001h-4z" />
</svg>

<svg xmlns="http://www.w3.org/2000/svg" width="24" height="24" fill="currentColor" viewBox="0 0 24 24"><path d="m12 2 .117.007a1 1 0 0 1 .876.876L13 3v4l.005.15a2 2 0 0 0 1.838 1.844L15 9h4l.117.007a1 1 0 0 1 .876.876L20 10v9a3 3 0 0 1-2.824 2.995L17 22H7a3 3 0 0 1-2.995-2.824L4 19V5a3 3 0 0 1 2.824-2.995L7 2zm-2 9H9a1 1 0 0 0-1 1v5a1 1 0 0 0 1 1h1a1 1 0 0 0 1-1l-.007-.117a1 1 0 0 0-.876-.876L10 16v-3a1 1 0 0 0 0-2m5 0h-1a1 1 0 0 0 0 2v3a1 1 0 0 0 0 2h1a1 1 0 0 0 1-1v-5a1 1 0 0 0-1-1m-.001-8.001L19 7h-4z"/></svg>
